X: 50
T: The Crow
N: Derived from pawnee50.krn
O: Oklahoma, U.S.A.
N: from Pawnee Music by Frances Densmore, 1926
Z: transcribed to **kern format by David Huron, August 2000
C: Skidi and Chaui Bands, 1919
L: 1/8
M: 2/4
Q: 1/4=88
K: F clef=treble
%%linebreak <none>
G2G2 | 
F F F F | 
F2D2 | 
G2G2 | 
F F F F | 
F2D2 | 
D2E2 | 
D D D D | 
D2A,2 | 
D2E2 | 
D D D D | 
D2A,2 |]  



